X: 042113
T: Diamond Rock (The)
C: Joe Liddy
Z: BB
S: "The Leitrim Fiddler" (Dublin 1981)
L: 1/8
M: 4/4
R: reel
Q: 1/4 = 180
K: Edor
ef |: g2 af gedB | A2 BA GEED | B,EED EFGA | B2 BA Bdef |
[1 g2 af gedB | A=cBA GEED | B,EED EFGA | B[Gd]AF GE E2 :|
[2 gaba gedB | AEBE dEBe | B,EED EFGA | B2 AF GE E2 ||
e3d egBd | egdg egBd | egde g2 ae | gedB A2 Bd |
e2 ed egBd | egdg eg B2 | dega gedB | AGED E3 d ||
e2 ed egBd | egdg egBd | egde g2 ae | gedB A2 Bd | 
e2 ed egBd | egde gabg | a2 bg (3bge dB | AGED E4 ||
%%%%%%%%%%%%%%%%%
